images/svg/instagram_svg.svg

<svg width="22" height="22" viewBox="0 0 22 22" fill="none" xmlns="http://www.w3.org/2000/svg">
<path d="M11.0049 5.60952C7.88169 5.60952 5.36249 8.01421 5.36249 10.9955C5.36249 13.9767 7.88169 16.3814 11.0049 16.3814C14.1281 16.3814 16.6473 13.9767 16.6473 10.9955C16.6473 8.01421 14.1281 5.60952 11.0049 5.60952ZM11.0049 14.497C8.9866 14.497 7.3366 12.9267 7.3366 10.9955C7.3366 9.06421 8.98169 7.4939 11.0049 7.4939C13.0281 7.4939 14.6732 9.06421 14.6732 10.9955C14.6732 12.9267 13.0232 14.497 11.0049 14.497ZM18.1942 5.38921C18.1942 6.08765 17.6049 6.64546 16.8781 6.64546C16.1464 6.64546 15.562 6.08296 15.562 5.38921C15.562 4.69546 16.1513 4.13296 16.8781 4.13296C17.6049 4.13296 18.1942 4.69546 18.1942 5.38921ZM21.9312 6.66421C21.8477 4.9814 21.4451 3.49077 20.1536 2.26265C18.8669 1.03452 17.3053 0.650146 15.5424 0.565771C13.7254 0.467334 8.27946 0.467334 6.46249 0.565771C4.70446 0.645459 3.14285 1.02983 1.85134 2.25796C0.559819 3.48608 0.162051 4.97671 0.0736587 6.65952C-0.0294662 8.3939 -0.0294662 13.5923 0.0736587 15.3267C0.157141 17.0095 0.559819 18.5001 1.85134 19.7283C3.14285 20.9564 4.69955 21.3408 6.46249 21.4251C8.27946 21.5236 13.7254 21.5236 15.5424 21.4251C17.3053 21.3455 18.8669 20.9611 20.1536 19.7283C21.4402 18.5001 21.8428 17.0095 21.9312 15.3267C22.0344 13.5923 22.0344 8.39858 21.9312 6.66421ZM19.5839 17.1876C19.2009 18.1064 18.4594 18.8142 17.4919 19.1845C16.0433 19.733 12.6058 19.6064 11.0049 19.6064C9.40401 19.6064 5.9616 19.7283 4.51785 19.1845C3.55535 18.8189 2.81384 18.1111 2.42589 17.1876C1.85134 15.8048 1.98393 12.5236 1.98393 10.9955C1.98393 9.46733 1.85625 6.1814 2.42589 4.80327C2.80892 3.88452 3.55044 3.17671 4.51785 2.8064C5.96651 2.25796 9.40401 2.38452 11.0049 2.38452C12.6058 2.38452 16.0482 2.26265 17.4919 2.8064C18.4544 3.17202 19.196 3.87983 19.5839 4.80327C20.1585 6.18608 20.0259 9.46733 20.0259 10.9955C20.0259 12.5236 20.1585 15.8095 19.5839 17.1876Z" fill="white"/>
</svg>

<svg xmlns="http://www.w3.org/2000/svg" width="22" height="22" fill="none"><path fill="#fff" d="M11.005 5.61c-3.123 0-5.643 2.404-5.643 5.385 0 2.982 2.52 5.386 5.643 5.386 3.123 0 5.642-2.404 5.642-5.386 0-2.98-2.519-5.385-5.642-5.385Zm0 8.887c-2.018 0-3.668-1.57-3.668-3.502 0-1.93 1.645-3.501 3.668-3.501s3.668 1.57 3.668 3.502c0 1.93-1.65 3.501-3.668 3.501Zm7.19-9.108c0 .699-.59 1.256-1.317 1.256-.732 0-1.316-.562-1.316-1.256s.59-1.256 1.316-1.256c.727 0 1.316.562 1.316 1.256Zm3.736 1.275c-.083-1.683-.486-3.173-1.777-4.401C18.867 1.035 17.305.65 15.542.566c-1.817-.099-7.263-.099-9.08 0-1.758.08-3.32.464-4.61 1.692C.56 3.486.161 4.977.073 6.66c-.103 1.734-.103 6.932 0 8.667.083 1.682.486 3.173 1.777 4.401 1.292 1.228 2.849 1.613 4.611 1.697 1.817.099 7.263.099 9.08 0 1.763-.08 3.325-.464 4.612-1.697 1.286-1.228 1.689-2.719 1.777-4.401.103-1.735.103-6.928 0-8.663Zm-2.347 10.524c-.383.918-1.125 1.626-2.092 1.997-1.449.548-4.886.421-6.487.421s-5.043.122-6.487-.422a3.634 3.634 0 0 1-2.092-1.996c-.575-1.383-.442-4.664-.442-6.192 0-1.529-.128-4.815.442-6.193.383-.918 1.124-1.626 2.092-1.997 1.449-.548 4.886-.421 6.487-.421 1.6 0 5.043-.122 6.487.421a3.634 3.634 0 0 1 2.092 1.997c.575 1.383.442 4.664.442 6.192 0 1.529.133 4.815-.442 6.193Z"/></svg>
